X: 1794
T: Sormadı Hâl-i Dil-i Gam Hâreyi
C: Nikoğos Ağa
O: Turkey
F: http://compmusic.upf.edu/node/140
N: gulizar--sarki--senginsemai--sormadi_hal-i--nikogos_aga
N: makam= gulizar
N: form= sarki
N: usul= senginsemai = 6/4
M: 6/4
L: 1/16
K: C _2/4B ^3/4f  
Q: 1/4=72
%%MIDI tuningsystem comma53
g6f2 g3f g2ab a2g2 f2e2  | d4 fgf2 gag2 a4 a2c'2 b3a  | 
w:  Sor *  ma *  dı  *  *  hâl_  |  *  i  *  *  dil_ *  *  i  gam   | 
a3g g3f g3f g2ab a2gf e4  | d2e6 e2^f2 d4 e2f2 g2{a}g=f  | 
w:  hâ *  *  *  *  *  re *  *  yi    |  Şer *  hâ *  le di   | 
e2{=f}ed c2d2 {e}dc2B cBBA A6G2  | \
w:  *  *  *  *  sî *  *  ne  *  *  i  *  *  *  sad  | 
d2e6 e3d d2{=f}ed d6c2  | 
w:  pâ   | 
e3d c2d2 {e}dc2B cBBA A6z2  | d2e6 e3d d2{=f}ed d6c2  | 
w:  pâ *  *  *  *  *  *  *  re *  *  *  yi    |  pâ   | 
e3d c2d2 {e}dc2B cBBA A6z2  | g8 g2_7/8a2 {b}a2ga g2fe f2g2  | 
w:  pâ *  *  *  *  *  *  *  re *  *  *  yi    |  Ver me *  *  di  *  tîğ_  | 
g^ffe _1/4b_7/8aag g3f gffe e8  | \
w:  *  *  *  *  i  *  *  *  si *  te *  *  *  me   | 
e4 g4 f4 _7/8a3g {a}g2fe d4  | 
w:  â *  *  re *  *  yi   | 
e2=f6 z4 f4 f2fe d4  | e^fg4fe e3d _1/4b_7/8aag f2{a}g6  | 
w:  yâr   |  yâr  *  *  *  *  *  *  *  *  *  a man    | 
g8 g4 ^f4 fgfe d4  | e2{g}=f2 e2d2 e2ef ed2^c d8  | \
w:  Ken di si  aç  |  tı  *  *  *  *  sî *  *  ne *  *  me   | 
^c3d e2^f2 g3^3/4f g2ab a2gf e4  | 
w:  yâ *  *  *  *  *  re *  *  yi    | 
d2e6 e2^f2 d4 e2f2 g2{a}g=f  | e2{=f}ed c2d2 {e}dc2B cBBA A6G2  | 
w:  Şer *  hâ *  le di   |  *  *  *  *  sî *  *  ne  *  *  i  *  *  *  sad  | 
d2e6 e3d d2{=f}ed d6c2  | e3d c2d2 {e}dc2B cBBA A6z2  | 
w:  pâ   |  pâ *  *  *  *  *  *  *  re *  *  *  yi    | 
d2e6 e3d d2{=f}ed d6c2  | e3d c2d2 {e}dc2B cBBA A6z2  | 
w:  pâ   |  pâ *  *  *  *  *  *  *  re *  *  *  yi    | 
|


